src/pos-icons/call-received.svg

<svg height="24" viewBox="0 0 24 24" width="24" xmlns="http://www.w3.org/2000/svg"><path d="m20 5.41-1.41-1.41-11.59 11.59v-6.59h-2v10h10v-2h-6.59"/></svg>

<?xml version="1.0" encoding="UTF-8"?><!DOCTYPE svg PUBLIC "-//W3C//DTD SVG 1.1//EN" "http://www.w3.org/Graphics/SVG/1.1/DTD/svg11.dtd"><svg xmlns="http://www.w3.org/2000/svg" xmlns:xlink="http://www.w3.org/1999/xlink" version="1.1" id="mdi-call-received" width="24" height="24" viewBox="0 0 24 24"><path d="M20,5.41L18.59,4L7,15.59V9H5V19H15V17H8.41" /></svg>
